overrides/.icons/ui/armor.svg

<?xml version="1.0" encoding="UTF-8" standalone="no"?>
<svg
   viewBox="0 0 24 24"
   version="1.1"
   id="svg1"
   sodipodi:docname="armour.svg"
   width="24"
   height="24"
   inkscape:version="1.3.2 (091e20e, 2023-11-25, custom)"
   xmlns:inkscape="http://www.inkscape.org/namespaces/inkscape"
   xmlns:sodipodi="http://sodipodi.sourceforge.net/DTD/sodipodi-0.dtd"
   xmlns="http://www.w3.org/2000/svg"
   xmlns:svg="http://www.w3.org/2000/svg">
  <defs
     id="defs1">
    <inkscape:path-effect
       effect="fillet_chamfer"
       id="path-effect14"
       is_visible="true"
       lpeversion="1"
       nodesatellites_param="F,0,1,1,0,0.39028403,0,1 @ F,0,1,1,0,0.39028403,0,1 @ F,0,1,1,0,0.39028403,0,1 @ F,0,1,1,0,0.39028403,0,1 @ F,0,0,1,0,0.39028403,0,1"
       radius="0"
       unit="px"
       method="auto"
       mode="F"
       chamfer_steps="1"
       flexible="false"
       use_knot_distance="true"
       apply_no_radius="true"
       apply_with_radius="true"
       only_selected="false"
       hide_knots="false" />
    <inkscape:path-effect
       effect="fillet_chamfer"
       id="path-effect13"
       is_visible="true"
       lpeversion="1"
       nodesatellites_param="F,0,1,1,0,0.50240153,0,1 @ F,0,1,1,0,0.50240153,0,1 @ F,0,1,1,0,0.50240153,0,1 @ F,0,0,1,0,0.50240153,0,1"
       radius="0"
       unit="px"
       method="auto"
       mode="F"
       chamfer_steps="1"
       flexible="false"
       use_knot_distance="true"
       apply_no_radius="true"
       apply_with_radius="true"
       only_selected="false"
       hide_knots="false" />
    <inkscape:path-effect
       effect="fillet_chamfer"
       id="path-effect12"
       is_visible="true"
       lpeversion="1"
       nodesatellites_param="F,0,0,1,0,0,0,1 @ F,0,0,1,0,0,0,1 @ F,0,0,1,0,0,0,1 @ F,0,0,1,0,0,0,1 @ F,0,0,1,0,0,0,1 | F,0,0,1,0,0,0,1 @ F,0,0,1,0,0,0,1 @ F,0,0,1,0,0,0,1 @ F,0,0,1,0,0,0,1"
       radius="0"
       unit="px"
       method="auto"
       mode="F"
       chamfer_steps="1"
       flexible="false"
       use_knot_distance="true"
       apply_no_radius="true"
       apply_with_radius="true"
       only_selected="false"
       hide_knots="false" />
    <inkscape:path-effect
       effect="fillet_chamfer"
       id="path-effect11"
       is_visible="true"
       lpeversion="1"
       nodesatellites_param="F,0,1,1,0,0.47190693,0,1 @ F,0,1,1,0,0.47190693,0,1 @ F,0,1,1,0,0.47190693,0,1 @ F,0,0,1,0,0.47190693,0,1"
       radius="0"
       unit="px"
       method="auto"
       mode="F"
       chamfer_steps="1"
       flexible="false"
       use_knot_distance="true"
       apply_no_radius="true"
       apply_with_radius="true"
       only_selected="false"
       hide_knots="false" />
    <inkscape:path-effect
       effect="fillet_chamfer"
       id="path-effect10"
       is_visible="true"
       lpeversion="1"
       nodesatellites_param="F,0,1,1,0,0.54593969,0,1 @ F,0,1,1,0,0.54593969,0,1 @ F,0,0,1,0,0.54593969,0,1 @ F,0,1,1,0,0.54593969,0,1 @ F,0,1,1,0,0.54593969,0,1"
       radius="0"
       unit="px"
       method="auto"
       mode="F"
       chamfer_steps="1"
       flexible="false"
       use_knot_distance="true"
       apply_no_radius="true"
       apply_with_radius="true"
       only_selected="false"
       hide_knots="false" />
    <inkscape:path-effect
       effect="fillet_chamfer"
       id="path-effect9"
       is_visible="true"
       lpeversion="1"
       nodesatellites_param="F,0,1,1,0,0.4292642,0,1 @ F,0,1,1,0,0.4292642,0,1 @ F,0,1,1,0,0.4292642,0,1 @ F,0,1,1,0,0.4292642,0,1 @ F,0,1,1,0,0.4292642,0,1 @ F,0,1,1,0,0.4292642,0,1 @ F,0,1,1,0,0.4292642,0,1 @ F,0,1,1,0,0.4292642,0,1 @ F,0,1,1,0,0.4292642,0,1 @ F,0,0,1,0,0.4292642,0,1 @ F,0,1,1,0,0.4292642,0,1"
       radius="0"
       unit="px"
       method="auto"
       mode="F"
       chamfer_steps="1"
       flexible="false"
       use_knot_distance="true"
       apply_no_radius="true"
       apply_with_radius="true"
       only_selected="false"
       hide_knots="false" />
    <inkscape:path-effect
       effect="fillet_chamfer"
       id="path-effect8"
       is_visible="true"
       lpeversion="1"
       nodesatellites_param="F,0,0,1,0,0,0,1 @ F,0,0,1,0,0,0,1 @ F,0,0,1,0,0,0,1 @ F,0,0,1,0,0,0,1 @ F,0,0,1,0,0,0,1 @ F,0,0,1,0,0,0,1 @ F,0,0,1,0,0,0,1 @ F,0,0,1,0,0,0,1 @ F,0,0,1,0,0,0,1 @ F,0,0,1,0,0,0,1 @ F,0,0,1,0,0,0,1"
       radius="0"
       unit="px"
       method="auto"
       mode="F"
       chamfer_steps="1"
       flexible="false"
       use_knot_distance="true"
       apply_no_radius="true"
       apply_with_radius="true"
       only_selected="false"
       hide_knots="false" />
    <inkscape:path-effect
       effect="fillet_chamfer"
       id="path-effect13-3"
       is_visible="true"
       lpeversion="1"
       nodesatellites_param="F,0,1,1,0,0.50240153,0,1 @ F,0,1,1,0,0.50240153,0,1 @ F,0,1,1,0,0.50240153,0,1 @ F,0,0,1,0,0.50240153,0,1"
       radius="0"
       unit="px"
       method="auto"
       mode="F"
       chamfer_steps="1"
       flexible="false"
       use_knot_distance="true"
       apply_no_radius="true"
       apply_with_radius="true"
       only_selected="false"
       hide_knots="false" />
    <inkscape:path-effect
       effect="fillet_chamfer"
       id="path-effect11-8"
       is_visible="true"
       lpeversion="1"
       nodesatellites_param="F,0,1,1,0,0.47190693,0,1 @ F,0,1,1,0,0.47190693,0,1 @ F,0,1,1,0,0.47190693,0,1 @ F,0,0,1,0,0.47190693,0,1"
       radius="0"
       unit="px"
       method="auto"
       mode="F"
       chamfer_steps="1"
       flexible="false"
       use_knot_distance="true"
       apply_no_radius="true"
       apply_with_radius="true"
       only_selected="false"
       hide_knots="false" />
    <inkscape:path-effect
       effect="fillet_chamfer"
       id="path-effect10-4"
       is_visible="true"
       lpeversion="1"
       nodesatellites_param="F,0,1,1,0,0.54593969,0,1 @ F,0,1,1,0,0.54593969,0,1 @ F,0,0,1,0,0.54593969,0,1 @ F,0,1,1,0,0.54593969,0,1 @ F,0,1,1,0,0.54593969,0,1"
       radius="0"
       unit="px"
       method="auto"
       mode="F"
       chamfer_steps="1"
       flexible="false"
       use_knot_distance="true"
       apply_no_radius="true"
       apply_with_radius="true"
       only_selected="false"
       hide_knots="false" />
    <inkscape:path-effect
       effect="fillet_chamfer"
       id="path-effect14-1"
       is_visible="true"
       lpeversion="1"
       nodesatellites_param="F,0,1,1,0,0.39028403,0,1 @ F,0,1,1,0,0.39028403,0,1 @ F,0,1,1,0,0.39028403,0,1 @ F,0,1,1,0,0.39028403,0,1 @ F,0,0,1,0,0.39028403,0,1"
       radius="0"
       unit="px"
       method="auto"
       mode="F"
       chamfer_steps="1"
       flexible="false"
       use_knot_distance="true"
       apply_no_radius="true"
       apply_with_radius="true"
       only_selected="false"
       hide_knots="false" />
    <inkscape:path-effect
       effect="fillet_chamfer"
       id="path-effect14-0"
       is_visible="true"
       lpeversion="1"
       nodesatellites_param="F,0,1,1,0,0.39028403,0,1 @ F,0,1,1,0,0.39028403,0,1 @ F,0,1,1,0,0.39028403,0,1 @ F,0,1,1,0,0.39028403,0,1 @ F,0,0,1,0,0.39028403,0,1"
       radius="0"
       unit="px"
       method="auto"
       mode="F"
       chamfer_steps="1"
       flexible="false"
       use_knot_distance="true"
       apply_no_radius="true"
       apply_with_radius="true"
       only_selected="false"
       hide_knots="false" />
  </defs>
  <sodipodi:namedview
     id="namedview1"
     pagecolor="#ffffff"
     bordercolor="#111111"
     borderopacity="1"
     inkscape:showpageshadow="0"
     inkscape:pageopacity="0"
     inkscape:pagecheckerboard="1"
     inkscape:deskcolor="#d1d1d1"
     inkscape:zoom="16.21875"
     inkscape:cx="6.3506744"
     inkscape:cy="10.450867"
     inkscape:window-width="1366"
     inkscape:window-height="697"
     inkscape:window-x="-8"
     inkscape:window-y="-8"
     inkscape:window-maximized="1"
     inkscape:current-layer="svg1" />
  <path
     id="path8"
     d="m 6.6803275,18.955402 0,1.53722 a 0.57927693,0.57927693 49.065203 0 0 0.4973518,0.573455 l 3.6487387,0.521268 A 0.43572821,0.43572821 139.0652 0 0 11.32377,21.155996 V 20.336037 A 0.6735178,0.6735178 53.279398 0 0 10.842204,19.690451 L 7.1618933,18.596184 a 0.37475965,0.37475965 143.2794 0 0 -0.4815658,0.359218 z"
     style="stroke-width:0.999999"
     inkscape:path-effect="#path-effect13"
     inkscape:original-d="m 6.6803275,18.453 v 2.542024 l 4.6434425,0.663374 v -1.824763 z"
     transform="translate(0.023086)" />
  <path
     id="path7"
     d="m 6.6803275,15.228233 0,1.594953 a 0.63264833,0.63264833 53.279897 0 0 0.4523336,0.606408 l 3.7387749,1.111721 a 0.35200622,0.35200622 143.2799 0 0 0.452334,-0.337406 v -0.395966 a 0.80201563,0.80201563 59.527395 0 0 -0.41252,-0.701087 l -3.8184024,-2.12135 a 0.27767059,0.27767059 149.5274 0 0 -0.4125201,0.242727 z"
     style="stroke-width:0.999999"
     inkscape:path-effect="#path-effect11"
     inkscape:original-d="m 6.6803275,14.756326 v 2.538767 l 4.6434425,1.380723 v -1.33978 z"
     transform="translate(0.023086)" />
  <path
     id="path5"
     d="M 6.0525522,8.7229239 5.4906481,10.408636 a 1.8748464,1.8748464 92.199829 0 0 -0.04024,1.047565 l 0.3578048,1.431321 a 1.2582737,1.2582737 52.509654 0 0 0.6096382,0.794773 l 4.4286822,2.460378 a 0.32123277,0.32123277 149.5273 0 0 0.477237,-0.280808 l 0,-5.836215 A 0.69923548,0.69923548 52.018472 0 0 10.794132,9.347294 L 6.7548312,8.3374163 a 0.58954066,0.58954066 151.23595 0 0 -0.702279,0.3855076 z"
     style="stroke-width:0.999999"
     inkscape:path-effect="#path-effect10"
     inkscape:original-d="m 6.2251935,8.205 -0.9071867,2.72156 0.6226068,2.490603 5.3831564,2.990642 V 9.4797103 Z"
     transform="translate(0.023086)" />
  <g
     id="g15"
     transform="translate(-0.01146425)">
    <path
       id="path3"
       d="M 2.9304589,7.6539775 1.0759674,9.5085368 a 0.45000955,0.45000955 94.064525 0 0 -0.041797,0.5882052 l 1.6955938,2.260791 a 0.33847865,0.33847865 4.0639666 0 0 0.5101325,0.03624 l 0.609817,-0.609863 A 1.6534365,1.6534365 121.7166 0 0 4.2490972,11.137676 L 5.2022976,8.2781444 A 0.36142317,0.36142317 61.236649 0 0 4.9470907,7.8132205 L 3.5850546,7.4726689 A 0.68927756,0.68927756 164.51844 0 0 2.9304589,7.6539775 Z"
       style="stroke-width:0.886102"
       inkscape:path-effect="#path-effect14"
       inkscape:original-d="M 3.2064263,7.378 0.8,9.7845143 2.9639346,12.66976 4.1256758,11.507931 5.325719,7.9078894 Z"
       transform="matrix(1.1285366,0,0,1.1285366,-0.44124149,-1.2818319)" />
    <path
       id="path3-4"
       d="M 2.9304589,7.6539775 1.0759674,9.5085368 a 0.45000955,0.45000955 94.064525 0 0 -0.041797,0.5882052 l 1.6955938,2.260791 a 0.33847865,0.33847865 4.0639666 0 0 0.5101325,0.03624 l 0.609817,-0.609863 A 1.6534365,1.6534365 121.7166 0 0 4.2490972,11.137676 L 5.2022976,8.2781444 A 0.36142317,0.36142317 61.236649 0 0 4.9470907,7.8132205 L 3.5850546,7.4726689 A 0.68927756,0.68927756 164.51844 0 0 2.9304589,7.6539775 Z"
       style="stroke-width:0.886102"
       inkscape:path-effect="#path-effect14-0"
       inkscape:original-d="M 3.2064263,7.378 0.8,9.7845143 2.9639346,12.66976 4.1256758,11.507931 5.325719,7.9078894 Z"
       transform="matrix(-1.1285366,0,0,1.1285366,24.46417,-1.2818319)" />
  </g>
  <path
     id="path8-8"
     d="m 6.6803275,18.955402 0,1.53722 a 0.57927693,0.57927693 49.065203 0 0 0.4973518,0.573455 l 3.6487387,0.521268 A 0.43572821,0.43572821 139.0652 0 0 11.32377,21.155996 V 20.336037 A 0.6735178,0.6735178 53.279398 0 0 10.842204,19.690451 L 7.1618933,18.596184 a 0.37475965,0.37475965 143.2794 0 0 -0.4815658,0.359218 z"
     style="stroke-width:0.999999"
     inkscape:path-effect="#path-effect13-3"
     inkscape:original-d="m 6.6803275,18.453 v 2.542024 l 4.6434425,0.663374 v -1.824763 z"
     transform="matrix(-1,0,0,1,23.976914,0)" />
  <path
     id="path7-3"
     d="m 6.6803275,15.228233 0,1.594953 a 0.63264833,0.63264833 53.279897 0 0 0.4523336,0.606408 l 3.7387749,1.111721 a 0.35200622,0.35200622 143.2799 0 0 0.452334,-0.337406 v -0.395966 a 0.80201563,0.80201563 59.527395 0 0 -0.41252,-0.701087 l -3.8184024,-2.12135 a 0.27767059,0.27767059 149.5274 0 0 -0.4125201,0.242727 z"
     style="stroke-width:0.999999"
     inkscape:path-effect="#path-effect11-8"
     inkscape:original-d="m 6.6803275,14.756326 v 2.538767 l 4.6434425,1.380723 v -1.33978 z"
     transform="matrix(-1,0,0,1,23.976914,0)" />
  <path
     id="path5-6"
     d="M 6.0525522,8.7229239 5.4906481,10.408636 a 1.8748464,1.8748464 92.199829 0 0 -0.04024,1.047565 l 0.3578048,1.431321 a 1.2582737,1.2582737 52.509654 0 0 0.6096382,0.794773 l 4.4286822,2.460378 a 0.32123277,0.32123277 149.5273 0 0 0.477237,-0.280808 l 0,-5.836215 A 0.69923548,0.69923548 52.018472 0 0 10.794132,9.347294 L 6.7548312,8.3374163 a 0.58954066,0.58954066 151.23595 0 0 -0.702279,0.3855076 z"
     style="stroke-width:0.999999"
     inkscape:path-effect="#path-effect10-4"
     inkscape:original-d="m 6.2251935,8.205 -0.9071867,2.72156 0.6226068,2.490603 5.3831564,2.990642 V 9.4797103 Z"
     transform="matrix(-1,0,0,1,23.976914,0)" />
  <path
     id="path2"
     d="M 9.7319535,3.2584474 9.2188658,5.3107988 A 0.63841314,0.63841314 137.95283 0 1 8.6898045,5.7879569 l -3.593757,0.5134242 a 0.08408733,0.08408733 92.952589 0 0 -0.0085,0.164819 l 6.4960056,1.6239426 a 1.7171189,1.7171189 9.1970967e-8 0 0 0.832896,0 l 6.496006,-1.6239426 a 0.08408732,0.08408732 87.047411 0 0 -0.0085,-0.1648189 L 15.310195,5.7879568 A 0.63841303,0.63841303 42.047172 0 1 14.781134,5.3107987 L 14.268047,3.2584475 A 0.30250014,0.30250014 21.135911 0 0 13.806773,3.0801246 L 13.29182,3.4234516 A 1.110423,1.110423 125.17269 0 0 12.830538,4.0780217 L 12.497707,5.4092412 A 0.54980215,0.54980215 142.01866 0 1 11.964323,5.8256867 0.50536766,0.50536766 42.029588 0 1 11.502293,5.4092412 L 11.169462,4.0780217 A 1.1104232,1.1104232 54.827315 0 0 10.70818,3.4234515 L 10.193227,3.0801247 A 0.30250014,0.30250014 158.8641 0 0 9.7319535,3.2584474 Z"
     style="stroke-width:1.06513"
     inkscape:path-effect="#path-effect9"
     inkscape:original-d="M 9.8360654,2.842 9.1147539,5.7272462 4.6710981,6.3620918 12,8.194251 19.328902,6.3620918 14.885246,5.7272462 14.163935,2.842 12.934658,3.6615762 12.393587,5.8256867 H 11.606413 L 11.065342,3.6615762 Z"
     transform="matrix(0.77000515,0,0,1.1447322,2.9757378,-1.3016378)" />
</svg>

<?xml version="1.0" encoding="UTF-8"?>
<svg id="svg1" width="24" height="24" version="1.1" viewBox="0 0 24 24" xmlns="http://www.w3.org/2000/svg">
 <path id="path8" transform="translate(.023086)" d="m6.6803 18.955v1.5372a0.57928 0.57928 49.065 0 0 0.49735 0.57346l3.6487 0.52127a0.43573 0.43573 139.07 0 0 0.49735-0.43135v-0.81996a0.67352 0.67352 53.279 0 0-0.48157-0.64559l-3.6803-1.0943a0.37476 0.37476 143.28 0 0-0.48157 0.35922z"/>
 <path id="path7" transform="translate(.023086)" d="m6.6803 15.228v1.595a0.63265 0.63265 53.28 0 0 0.45233 0.60641l3.7388 1.1117a0.35201 0.35201 143.28 0 0 0.45233-0.33741v-0.39597a0.80202 0.80202 59.527 0 0-0.41252-0.70109l-3.8184-2.1214a0.27767 0.27767 149.53 0 0-0.41252 0.24273z"/>
 <path id="path5" transform="translate(.023086)" d="m6.0526 8.7229-0.5619 1.6857a1.8748 1.8748 92.2 0 0-0.04024 1.0476l0.3578 1.4313a1.2583 1.2583 52.51 0 0 0.60964 0.79477l4.4287 2.4604a0.32123 0.32123 149.53 0 0 0.47724-0.28081v-5.8362a0.69924 0.69924 52.018 0 0-0.52964-0.67836l-4.0393-1.0099a0.58954 0.58954 151.24 0 0-0.70228 0.38551z"/>
 <g id="g15" transform="translate(-.011464)" stroke-width=".8861">
  <path id="path3" transform="matrix(1.1285 0 0 1.1285 -.44124 -1.2818)" d="m2.9305 7.654-1.8545 1.8546a0.45001 0.45001 94.065 0 0-0.041797 0.58821l1.6956 2.2608a0.33848 0.33848 4.064 0 0 0.51013 0.03624l0.60982-0.60986a1.6534 1.6534 121.72 0 0 0.39938-0.64623l0.9532-2.8595a0.36142 0.36142 61.237 0 0-0.25521-0.46492l-1.362-0.34055a0.68928 0.68928 164.52 0 0-0.6546 0.18131z"/>
  <path id="path3-4" transform="matrix(-1.1285 0 0 1.1285 24.464 -1.2818)" d="m2.9305 7.654-1.8545 1.8546a0.45001 0.45001 94.065 0 0-0.041797 0.58821l1.6956 2.2608a0.33848 0.33848 4.064 0 0 0.51013 0.03624l0.60982-0.60986a1.6534 1.6534 121.72 0 0 0.39938-0.64623l0.9532-2.8595a0.36142 0.36142 61.237 0 0-0.25521-0.46492l-1.362-0.34055a0.68928 0.68928 164.52 0 0-0.6546 0.18131z"/>
 </g>
 <path id="path8-8" transform="matrix(-1 0 0 1 23.977 0)" d="m6.6803 18.955v1.5372a0.57928 0.57928 49.065 0 0 0.49735 0.57346l3.6487 0.52127a0.43573 0.43573 139.07 0 0 0.49735-0.43135v-0.81996a0.67352 0.67352 53.279 0 0-0.48157-0.64559l-3.6803-1.0943a0.37476 0.37476 143.28 0 0-0.48157 0.35922z"/>
 <path id="path7-3" transform="matrix(-1 0 0 1 23.977 0)" d="m6.6803 15.228v1.595a0.63265 0.63265 53.28 0 0 0.45233 0.60641l3.7388 1.1117a0.35201 0.35201 143.28 0 0 0.45233-0.33741v-0.39597a0.80202 0.80202 59.527 0 0-0.41252-0.70109l-3.8184-2.1214a0.27767 0.27767 149.53 0 0-0.41252 0.24273z"/>
 <path id="path5-6" transform="matrix(-1 0 0 1 23.977 0)" d="m6.0526 8.7229-0.5619 1.6857a1.8748 1.8748 92.2 0 0-0.04024 1.0476l0.3578 1.4313a1.2583 1.2583 52.51 0 0 0.60964 0.79477l4.4287 2.4604a0.32123 0.32123 149.53 0 0 0.47724-0.28081v-5.8362a0.69924 0.69924 52.018 0 0-0.52964-0.67836l-4.0393-1.0099a0.58954 0.58954 151.24 0 0-0.70228 0.38551z"/>
 <path id="path2" transform="matrix(.77001 0 0 1.1447 2.9757 -1.3016)" d="m9.732 3.2584-0.51309 2.0524a0.63841 0.63841 137.95 0 1-0.52906 0.47716l-3.5938 0.51342a0.084087 0.084087 92.953 0 0-0.0085 0.16482l6.496 1.6239a1.7171 1.7171 9.1971e-8 0 0 0.8329 0l6.496-1.6239a0.084087 0.084087 87.047 0 0-0.0085-0.16482l-3.5938-0.51342a0.63841 0.63841 42.047 0 1-0.52906-0.47716l-0.51309-2.0524a0.3025 0.3025 21.136 0 0-0.46127-0.17832l-0.51495 0.34333a1.1104 1.1104 125.17 0 0-0.46128 0.65457l-0.33283 1.3312a0.5498 0.5498 142.02 0 1-0.53338 0.41645 0.50537 0.50537 42.03 0 1-0.46203-0.41645l-0.33283-1.3312a1.1104 1.1104 54.827 0 0-0.46128-0.65457l-0.51495-0.34333a0.3025 0.3025 158.86 0 0-0.46127 0.17832z" stroke-width="1.0651"/>
</svg>
